checkerboard-remove.svg

<svg fill="currentColor" viewBox="0 0 24 24"><path d="M8 16h4v-4H8zm4-4h4V8h-4zM2 2v20h11.5c-.5-.6-.9-1.3-1.2-2H8v-4H4v-4h4V8H4V4h4v4h4V4h4v4h4v4.4c.7.3 1.4.7 2 1.2V2zm18.1 12.5L18 16.6l-2.1-2.1-1.4 1.4 2.1 2.1-2.1 2.1 1.4 1.4 2.1-2.1 2.1 2.1 1.4-1.4-2.1-2.1 2.1-2.1z"/></svg>

<svg  viewBox="0 0 24 24" fill="currentColor"><path  d="M8 16H12V12H8V16M12 12H16V8H12V12M2 2V22H13.5C13 21.4 12.6 20.7 12.3 20H8V16H4V12H8V8H4V4H8V8H12V4H16V8H20V12.4C20.7 12.7 21.4 13.1 22 13.6V2H2M20.1 14.5L18 16.6L15.9 14.5L14.5 15.9L16.6 18L14.5 20.1L15.9 21.5L18 19.4L20.1 21.5L21.5 20.1L19.4 18L21.5 15.9L20.1 14.5Z"/></svg>
